client/src/assets/rating_star.svg

<svg width="18" height="17" viewBox="0 0 18 17" fill="none" xmlns="http://www.w3.org/2000/svg">
<path d="M8.52447 0.463525C8.67415 0.00287008 9.32585 0.00287008 9.47553 0.463525L11.1329 5.56434C11.1998 5.77035 11.3918 5.90983 11.6084 5.90983H16.9717C17.4561 5.90983 17.6575 6.52964 17.2656 6.81434L12.9266 9.96681C12.7514 10.0941 12.678 10.3198 12.745 10.5258L14.4023 15.6266C14.552 16.0873 14.0248 16.4704 13.6329 16.1857L9.29389 13.0332C9.11865 12.9059 8.88135 12.9059 8.70611 13.0332L4.3671 16.1857C3.97524 16.4704 3.448 16.0873 3.59768 15.6266L5.25503 10.5258C5.32197 10.3198 5.24864 10.0941 5.07339 9.96681L0.734384 6.81434C0.342527 6.52964 0.543915 5.90983 1.02828 5.90983H6.39159C6.6082 5.90983 6.80018 5.77035 6.86712 5.56434L8.52447 0.463525Z" fill="#FF532E"/>
</svg>

<?xml version="1.0" encoding="UTF-8"?>
<svg id="Layer_1" xmlns="http://www.w3.org/2000/svg" version="1.1" viewBox="0 0 18 17">
  <!-- Generator: Adobe Illustrator 29.8.1, SVG Export Plug-In . SVG Version: 2.1.1 Build 2)  -->
  <defs>
    <style>
      .st0 {
        fill: #fe9a00;
      }
    </style>
  </defs>
  <path class="st0" d="M8.52.46C8.67,0,9.33,0,9.48.46l1.66,5.1c.07.21.26.35.48.35h5.36c.48,0,.69.62.29.9l-4.34,3.15c-.18.13-.25.35-.18.56l1.66,5.1c.15.46-.38.84-.77.56l-4.34-3.15c-.18-.13-.41-.13-.59,0l-4.34,3.15c-.39.28-.92-.1-.77-.56l1.66-5.1c.07-.21,0-.43-.18-.56L.73,6.81c-.39-.28-.19-.9.29-.9h5.36c.22,0,.41-.14.48-.35L8.52.46Z"/>
</svg>
